X: 0
T: I Buried My Wife And Danced On Her Grave
C: Trad
R: jig
M: 6/8
L: 1/8
K: Gmaj
|:"D"DED F2 G|AdB cAF|"G"~G3 BAG|"D"FAF "A"GEA|
"D"DED F2 G|AdB cAF|"G"~G3 BAG|1 "A"AFD "D"D2 E:|2 "A"AFD "D"DFA||
|:"D"d2 e fed|faf "A"gfe|"D"d2 e fed|"C"dcA dcA|
"D"d2 e fed|faf "A"gfe|"D"d2 A "G"BAG|1 "A"AFD "D"DFA:|2 "A"AFD "D"D2 D|]